X: 322
T: Bezm-i Meyde Faslı...
C: Ahmet Avni Konuk
O: Turkey
F: http://compmusic.upf.edu/node/140
N: nisabur--kupe--musemmen--bezm-i--ahmet_avni_konuk
N: makam= nisabur
N: form= kupe
N: usul= musemmen = 8/8
M: 8/8
L: 1/16
K: C ^c   
Q: 1/4=96
%%MIDI tuningsystem comma53
d4 defe dcd4z2  | d4 efed dcdc B2z2  | \
w:  Bezm_ i  *  mey *  *  *  de   |  fas lı  *  ol  *  *  *  şûh_  | 
B2B2 c2A4B2 c2d2  | 
w:  ı  *  Ni şâ bur   | 
egf2 efed dcd4z2  | d4 e2g^3/4f ^3/4egf4z2  | \
w:  ey *  *  le *  sin    |  Â şık_ ı  *  *  *  meh  | 
e^3/4fe2 faag =fed4z2  | 
w:  cû *  *  ru *  nu  *  *  *  lût  | 
d4 efed dcd2 c2e2  | d2c2 d2cd cBB4z2  | |


